img/emoji-smile.svg

<svg width="16" height="16" viewBox="0 0 16 16" fill="none" xmlns="http://www.w3.org/2000/svg">
<path fill-rule="evenodd" clip-rule="evenodd" d="M7.99999 0.800003C4.02999 0.800003 0.799988 4.03 0.799988 8C0.799988 11.97 4.02999 15.2 7.99999 15.2C11.97 15.2 15.2 11.971 15.2 8C15.2 4.029 11.97 0.800003 7.99999 0.800003ZM7.99999 14C4.68599 14 1.99999 11.314 1.99999 8C1.99999 4.686 4.68599 2 7.99999 2C11.313 2 14 4.686 14 8C14 11.314 11.313 14 7.99999 14ZM6.99999 5.8C6.99999 6.35229 6.55227 6.8 5.99999 6.8C5.4477 6.8 4.99999 6.35229 4.99999 5.8C4.99999 5.24772 5.4477 4.8 5.99999 4.8C6.55227 4.8 6.99999 5.24772 6.99999 5.8ZM11.001 5.8C11.001 6.35229 10.5533 6.8 10.001 6.8C9.4487 6.8 9.00099 6.35229 9.00099 5.8C9.00099 5.24772 9.4487 4.8 10.001 4.8C10.5533 4.8 11.001 5.24772 11.001 5.8ZM11.75 7.6C11.391 7.6 11.1 7.891 11.1 8.25C11.1 9.821 9.70899 11.1 7.99999 11.1C6.29099 11.1 4.89999 9.822 4.89999 8.25C4.89999 7.891 4.60899 7.6 4.24999 7.6C3.89099 7.6 3.59999 7.891 3.59999 8.25C3.59999 10.538 5.57399 12.4 7.99999 12.4C10.426 12.4 12.401 10.538 12.401 8.25C12.4 7.891 12.109 7.6 11.75 7.6Z" fill="white"/>
<mask id="mask0" mask-type="alpha" maskUnits="userSpaceOnUse" x="0" y="0" width="16" height="16">
<path fill-rule="evenodd" clip-rule="evenodd" d="M7.99999 0.800003C4.02999 0.800003 0.799988 4.03 0.799988 8C0.799988 11.97 4.02999 15.2 7.99999 15.2C11.97 15.2 15.2 11.971 15.2 8C15.2 4.029 11.97 0.800003 7.99999 0.800003ZM7.99999 14C4.68599 14 1.99999 11.314 1.99999 8C1.99999 4.686 4.68599 2 7.99999 2C11.313 2 14 4.686 14 8C14 11.314 11.313 14 7.99999 14ZM6.99999 5.8C6.99999 6.35229 6.55227 6.8 5.99999 6.8C5.4477 6.8 4.99999 6.35229 4.99999 5.8C4.99999 5.24772 5.4477 4.8 5.99999 4.8C6.55227 4.8 6.99999 5.24772 6.99999 5.8ZM11.001 5.8C11.001 6.35229 10.5533 6.8 10.001 6.8C9.4487 6.8 9.00099 6.35229 9.00099 5.8C9.00099 5.24772 9.4487 4.8 10.001 4.8C10.5533 4.8 11.001 5.24772 11.001 5.8ZM11.75 7.6C11.391 7.6 11.1 7.891 11.1 8.25C11.1 9.821 9.70899 11.1 7.99999 11.1C6.29099 11.1 4.89999 9.822 4.89999 8.25C4.89999 7.891 4.60899 7.6 4.24999 7.6C3.89099 7.6 3.59999 7.891 3.59999 8.25C3.59999 10.538 5.57399 12.4 7.99999 12.4C10.426 12.4 12.401 10.538 12.401 8.25C12.4 7.891 12.109 7.6 11.75 7.6Z" fill="white"/>
</mask>
<g mask="url(#mask0)">
<rect opacity="0.5" width="16" height="16" fill="black"/>
</g>
</svg>

<svg width="16" height="16" fill="none" viewBox="0 0 16 16" xmlns="http://www.w3.org/2000/svg"><path d="m8 0.8c-3.97 0-7.2 3.23-7.2 7.2s3.23 7.2 7.2 7.2c3.97 0 7.2-3.229 7.2-7.2s-3.23-7.2-7.2-7.2zm0 13.2c-3.314 0-6-2.686-6-6s2.686-6 6-6c3.313 0 6 2.686 6 6s-2.687 6-6 6zm-1-8.2c0 0.55229-0.44772 1-1 1-0.55229 0-1-0.44771-1-1 0-0.55228 0.44771-1 1-1 0.55228 0 1 0.44772 1 1zm4.001 0c0 0.55229-0.4477 1-1 1s-1-0.44771-1-1c0-0.55228 0.44771-1 1-1s1 0.44772 1 1zm0.749 1.8c-0.359 0-0.65 0.291-0.65 0.65 0 1.571-1.391 2.85-3.1 2.85s-3.1-1.278-3.1-2.85c0-0.359-0.291-0.65-0.65-0.65s-0.65 0.291-0.65 0.65c0 2.288 1.974 4.15 4.4 4.15 2.426 0 4.401-1.862 4.401-4.15-1e-3 -0.359-0.292-0.65-0.651-0.65z" clip-rule="evenodd" fill="#fff" fill-rule="evenodd"/><mask id="a" x="0" y="0" width="16" height="16" mask-type="alpha" maskUnits="userSpaceOnUse"><path d="m8 0.8c-3.97 0-7.2 3.23-7.2 7.2s3.23 7.2 7.2 7.2c3.97 0 7.2-3.229 7.2-7.2s-3.23-7.2-7.2-7.2zm0 13.2c-3.314 0-6-2.686-6-6s2.686-6 6-6c3.313 0 6 2.686 6 6s-2.687 6-6 6zm-1-8.2c0 0.55229-0.44772 1-1 1-0.55229 0-1-0.44771-1-1 0-0.55228 0.44771-1 1-1 0.55228 0 1 0.44772 1 1zm4.001 0c0 0.55229-0.4477 1-1 1s-1-0.44771-1-1c0-0.55228 0.44771-1 1-1s1 0.44772 1 1zm0.749 1.8c-0.359 0-0.65 0.291-0.65 0.65 0 1.571-1.391 2.85-3.1 2.85s-3.1-1.278-3.1-2.85c0-0.359-0.291-0.65-0.65-0.65s-0.65 0.291-0.65 0.65c0 2.288 1.974 4.15 4.4 4.15 2.426 0 4.401-1.862 4.401-4.15-1e-3 -0.359-0.292-0.65-0.651-0.65z" clip-rule="evenodd" fill="#fff" fill-rule="evenodd"/></mask><g mask="url(#a)"><rect width="16" height="16" fill="#000" opacity=".5"/></g></svg>
